X: 99
T:Matt Molloy's
M:4/4
L:1/8
C:Matt Molloy, I would suppose?
S:Tony McCabe
R:reel
Z:From: "James T. Peeples" &lt;jpeeples@gte.net&gt;
Z:From: "James T. Peeples" &lt;jpeeples@gte.net&gt;
Z:From: "James T. Peeples" &lt;jpeeples@gte.net&gt;
Z:James T Peebles, 12/4/2000
K:ADor
A2eA BAeA | B2gd BAGB | A2eA BAeA | BAGB A3G | A2eA BAeA | Bdgd BAGB | A
2eA BAeA | BAGB A2eg |
aee2 agef | gBB2 gfgb | aee2 aged | BAGA BAAe | aee2 agef | gBB2 gfgb |
afge fded | B2GA BAA2 ||
<end>
<start>
